!!!OTL: 40c. Margretchen, die entfuehrte Koenigstochter.
!!!ARE: Europa, Mitteleuropa, Deutschland, Westfalen
!!!SCT: E0040B
!!!TXL: @@DE
!!!YEM: Copyright 1995, estate of Helmut Schaffrath.
**kern	**text
*ICvox	*
*M4/4	*
*met(c)	*
*k[b-e-a-d-]	*
*f:	*
!LO:TX:a:t=Langſam.	!
!LO:TX:a:t=Weſtfalen. Keſtner's Hſchr.	!
{8e-	Und
=1	=1
4.e-	als
8a-	ich
4a-	auf
4f	grün
=2	=2
4.f	Hei-
8e-	-de
4e-	kam,
8r}	.
{8e-	ſo
=3	=3
4.a-	weit
8a-	ins
4.b-	frem-
8b-	-de
=4	=4
[2cc	Land,
4cc]	.
8r}	.
{8a-	be-
=5	=5
4.g	-geg'nt
8f	mir
4g	Kö-
4a-	-nigs
=6	=6
2b-	Toch-
2cc}	-ter.
=7||	=7||
!LO:TX:a:t=Kehrvers.	!
{4.f	[Frem-
8g	-de-
4a-	-ling,
4f	mein
=8	=8
4g	Schatʒ,
4c	mein
4c}	Kind!]
{4a-	be-
=9	=9
4.g	-geg'nt
8f	mir
4g	Kö-
4a-	-nigs
=10	=10
2b-	Toch-
4cc	-ter,
8r}	.
{8b-	Mar-
=11	=11
4a-	-gre-
4f	-the
4g	war
4e	ihr
=12	=12
2f	Nam.
4r	.
8r}	.
==	==
!!!AGN: erzaehlendes Volks - Lied, Ritter - Sage, Ballade ?
!!!ONB: ESAC (Essen Associative Code) Database: ERK1
!!!AMT: simple quadruple
!!!AIN: vox
!!!EED: Helmut Schaffrath
!!!EEV: 1.0
!!!GTL: Ritter- und Raeubersagen
!!!URL-scan: https://rosdok.uni-rostock.de/mcrviewer/recordIdentifier/rosdok_ppn745146120/iview2/phys_0181.iview2?x=-250.1417780126858&y=-35.18353681592271&scale=0.5392104374602399&rotation=0&layout=singlePageLayout&logicalDiv=log_0009
!!!ENC: Anna Maria Matuszewska
!!!EEV: 2024/11/25
*-	*-
